svg/fluentui-system-icons/ic_fluent_resize_24_regular.svg

<svg width="24" height="24" viewBox="0 0 24 24" fill="none" xmlns="http://www.w3.org/2000/svg">
<path d="M11 2.75C11 2.33579 10.6642 2 10.25 2H5.25C3.45507 2 2 3.45507 2 5.25V10.25C2 10.6642 2.33579 11 2.75 11C3.16421 11 3.5 10.6642 3.5 10.25V5.25C3.5 4.2835 4.2835 3.5 5.25 3.5H10.25C10.6642 3.5 11 3.16421 11 2.75ZM13.75 2C13.3358 2 13 2.33579 13 2.75C13 3.16421 13.3358 3.5 13.75 3.5H18.75C19.7165 3.5 20.5 4.2835 20.5 5.25V10.25C20.5 10.6642 20.8358 11 21.25 11C21.6642 11 22 10.6642 22 10.25V5.25C22 3.45507 20.5449 2 18.75 2H13.75ZM13.75 22C13.3358 22 13 21.6642 13 21.25C13 20.8358 13.3358 20.5 13.75 20.5H18.75C19.7165 20.5 20.5 19.7165 20.5 18.75V13.75C20.5 13.3358 20.8358 13 21.25 13C21.6642 13 22 13.3358 22 13.75V18.75C22 20.5449 20.5449 22 18.75 22H13.75ZM10.25 22C10.6642 22 11 21.6642 11 21.25C11 20.8358 10.6642 20.5 10.25 20.5H5.25C4.2835 20.5 3.5 19.7165 3.5 18.75V13.75C3.5 13.3358 3.16421 13 2.75 13C2.33579 13 2 13.3358 2 13.75V18.75C2 20.5449 3.45507 22 5.25 22H10.25Z" fill="#212121"/>
</svg>

<svg xmlns="http://www.w3.org/2000/svg" width="24" height="24"><path d="M11 2.75a.75.75 0 0 0-.75-.75h-5A3.25 3.25 0 0 0 2 5.25v5a.75.75 0 0 0 1.5 0v-5c0-.966.784-1.75 1.75-1.75h5a.75.75 0 0 0 .75-.75ZM13.75 2a.75.75 0 0 0 0 1.5h5c.966 0 1.75.784 1.75 1.75v5a.75.75 0 0 0 1.5 0v-5A3.25 3.25 0 0 0 18.75 2h-5Zm0 20a.75.75 0 0 1 0-1.5h5a1.75 1.75 0 0 0 1.75-1.75v-5a.75.75 0 0 1 1.5 0v5A3.25 3.25 0 0 1 18.75 22h-5Zm-3.5 0a.75.75 0 0 0 0-1.5h-5a1.75 1.75 0 0 1-1.75-1.75v-5a.75.75 0 0 0-1.5 0v5A3.25 3.25 0 0 0 5.25 22h5Z"/></svg>
